src/components/Icon/utils/svgsOptimized/list-numbered.svg

<svg width="24" height="24" viewBox="0 0 24 24"  xmlns="http://www.w3.org/2000/svg">
<path fill-rule="evenodd" clip-rule="evenodd" d="M8.06001 6.13001C7.93001 6.03001 7.77001 5.98001 7.60001 6.00001C7.56772 6.00001 7.5396 6.01252 7.50758 6.02677C7.49001 6.03459 7.47126 6.04293 7.45001 6.05001L6.17001 6.78001C6.01001 6.87001 5.95001 7.06001 6.04001 7.22001L6.16001 7.47001C6.20001 7.55001 6.27001 7.62001 6.36001 7.64001C6.45001 7.67001 6.55001 7.66001 6.63001 7.61001L7.13001 7.33001V10.85C7.13001 11.04 7.28001 11.19 7.47001 11.19H7.91001C8.10001 11.19 8.25001 11.04 8.25001 10.85V6.56001C8.25001 6.40001 8.18001 6.24001 8.05001 6.13001H8.06001ZM10.5 6.59998H16.5C16.6657 6.59998 16.8 6.73429 16.8 6.89998V7.49998C16.8 7.66566 16.6657 7.79998 16.5 7.79998H10.5C10.3343 7.79998 10.2 7.66566 10.2 7.49998V6.89998C10.2 6.73429 10.3343 6.59998 10.5 6.59998ZM15.3 11.4H10.5C10.3343 11.4 10.2 11.5343 10.2 11.7V12.3C10.2 12.4657 10.3343 12.6 10.5 12.6H15.3C15.4657 12.6 15.6 12.4657 15.6 12.3V11.7C15.6 11.5343 15.4657 11.4 15.3 11.4ZM17.7 16.2H10.5C10.3343 16.2 10.2 16.3343 10.2 16.5V17.1C10.2 17.2657 10.3343 17.4 10.5 17.4H17.7C17.8657 17.4 18 17.2657 18 17.1V16.5C18 16.3343 17.8657 16.2 17.7 16.2ZM7.78003 17.04H8.60003C8.78003 17.04 8.93003 17.19 8.93003 17.37V17.66C8.93003 17.84 8.78003 17.99 8.60003 17.99H6.50003C6.27003 17.99 6.07003 17.85 6.01003 17.63C5.95003 17.41 6.02003 17.19 6.21003 17.06C6.38003 16.94 7.85003 15.83 7.85003 14.39C7.85003 14.23 7.79003 14.1 7.69003 14.01C7.63003 13.96 7.54003 13.9 7.40003 13.93C7.22003 13.97 7.08003 14.14 7.08003 14.34V14.5C7.08003 14.68 6.93003 14.83 6.75003 14.83H6.38003C6.20003 14.83 6.05003 14.68 6.05003 14.5V14.36C6.05003 13.57 6.64003 12.92 7.41003 12.89C7.79003 12.86 8.16003 13.01 8.44003 13.28C8.74003 13.56 8.90003 13.96 8.90003 14.39C8.90003 15.5 8.34003 16.41 7.78003 17.04Z" />
</svg>

<?xml version="1.0" encoding="utf-8"?><svg width="24" height="24" xmlns="http://www.w3.org/2000/svg" viewBox="0 0 24 24"><path fill-rule="evenodd" clip-rule="evenodd" d="M8.06 6.13A.626.626 0 0 0 7.6 6a.227.227 0 0 0-.092.027.622.622 0 0 1-.058.023l-1.28.73c-.16.09-.22.28-.13.44l.12.25c.04.08.11.15.2.17.09.03.19.02.27-.03l.5-.28v3.52c0 .19.15.34.34.34h.44c.19 0 .34-.15.34-.34V6.56c0-.16-.07-.32-.2-.43h.01Zm2.44.47h6a.3.3 0 0 1 .3.3v.6a.3.3 0 0 1-.3.3h-6a.3.3 0 0 1-.3-.3v-.6a.3.3 0 0 1 .3-.3Zm4.8 4.8h-4.8a.3.3 0 0 0-.3.3v.6a.3.3 0 0 0 .3.3h4.8a.3.3 0 0 0 .3-.3v-.6a.3.3 0 0 0-.3-.3Zm2.4 4.8h-7.2a.3.3 0 0 0-.3.3v.6a.3.3 0 0 0 .3.3h7.2a.3.3 0 0 0 .3-.3v-.6a.3.3 0 0 0-.3-.3Zm-9.92.84h.82c.18 0 .33.15.33.33v.29c0 .18-.15.33-.33.33H6.5c-.23 0-.43-.14-.49-.36-.06-.22.01-.44.2-.57.17-.12 1.64-1.23 1.64-2.67 0-.16-.06-.29-.16-.38a.32.32 0 0 0-.29-.08.42.42 0 0 0-.32.41v.16c0 .18-.15.33-.33.33h-.37c-.18 0-.33-.15-.33-.33v-.14c0-.79.59-1.44 1.36-1.47.38-.03.75.12 1.03.39.3.28.46.68.46 1.11 0 1.11-.56 2.02-1.12 2.65Z"/></svg>
